localPackages/DesignSystem/Sources/DesignSystem/Resources/Assets.xcassets/IconSet/ic-fingerprint.imageset/ic-fingerprint.svg

<svg width="24" height="24" viewBox="0 0 24 24" fill="none" xmlns="http://www.w3.org/2000/svg">
<g id="ic-fingerprint">
<g id="Icon">
<path fill-rule="evenodd" clip-rule="evenodd" d="M12.3056 3.01528C6.50801 2.6942 1.83335 7.50149 2.2796 13.2629C2.31158 13.6759 2.00273 14.0366 1.58976 14.0686C1.17678 14.1006 0.816064 13.7917 0.784077 13.3787C0.267255 6.70622 5.69763 1.13045 12.4168 1.51917L12.4419 1.52062L12.9249 1.58116C18.3507 1.91741 22.7282 6.25685 23.1796 11.6883L23.1806 11.7007L23.2404 12.6012L23.2406 12.6041C23.3924 14.6824 21.7025 16.3825 19.6929 16.305L19.68 16.3045C18.2845 16.2267 17.058 15.2951 16.6008 13.9198L16.5963 13.9064L15.9942 11.9736L15.9932 11.9705C15.3761 9.95938 13.4259 8.67443 11.3213 8.93127C9.25669 9.19061 7.62253 10.9002 7.52105 12.9354L7.52059 12.9447C7.41083 14.7057 7.84348 17.1547 9.64523 20.1853C9.8569 20.5414 9.73986 21.0016 9.38382 21.2133C9.02777 21.4249 8.56755 21.3079 8.35588 20.9519C6.42468 17.7035 5.89305 14.9598 6.02315 12.856C6.16484 10.0618 8.38397 7.78771 11.1358 7.44278L11.1381 7.4425C13.9715 7.09601 16.5978 8.83016 17.4267 11.5289L17.4272 11.5304L18.0263 13.4528C18.2927 14.2461 18.9888 14.7609 19.7571 14.8063C20.8758 14.8457 21.8316 13.8913 21.7445 12.7117L21.7441 12.7062L21.6843 11.8065C21.2903 7.10221 17.4903 3.3563 12.8107 3.07699L12.7863 3.07553L12.3056 3.01528ZM11.1084 4.41947C15.1401 4.08855 18.9007 6.67232 20.0219 10.6405C20.1345 11.0391 19.9027 11.4536 19.5041 11.5662C19.1055 11.6788 18.691 11.447 18.5784 11.0484C17.6518 7.76913 14.5465 5.64193 11.2303 5.9145L11.2284 5.91466C7.80458 6.18714 5.07568 8.91441 4.74797 12.3649L4.74582 12.3875L4.74259 12.4082L4.7422 12.4108L4.73968 12.429C4.73731 12.4467 4.73364 12.4756 4.72931 12.5151C4.72063 12.594 4.70929 12.7148 4.7002 12.8723C4.68201 13.1876 4.67295 13.6483 4.7119 14.2129C4.78992 15.3438 5.05962 16.8788 5.82387 18.4967C6.00079 18.8712 5.8406 19.3183 5.46607 19.4952C5.09154 19.6721 4.6445 19.5119 4.46758 19.1374C3.60558 17.3126 3.30308 15.5861 3.21546 14.3161C3.1716 13.6803 3.18135 13.1558 3.20269 12.7859C3.21337 12.6009 3.22697 12.4541 3.23829 12.3511C3.24395 12.2996 3.24905 12.259 3.25294 12.23L3.25645 12.2047C3.65943 8.05401 6.94963 4.75091 11.1084 4.41947Z" fill="#0F0F0F"/>
<path fill-rule="evenodd" clip-rule="evenodd" d="M11.4272 12.0771C12.1313 11.7798 12.9978 12.1792 13.2442 12.9785L11.4272 12.0771ZM13.2442 12.9785C13.2616 13.0456 13.2801 13.1182 13.3 13.1959C13.6943 14.7387 14.609 18.3177 17.5305 21.6657C17.8028 21.9778 18.2766 22.0101 18.5887 21.7377C18.9008 21.4654 18.933 20.9916 18.6607 20.6795C15.9782 17.6053 15.1373 14.3231 14.7497 12.8101C14.7293 12.7306 14.7102 12.656 14.6921 12.5865L14.6887 12.5734L14.6848 12.5604C14.2035 10.9517 12.4249 10.0276 10.8437 10.6952C9.45341 11.2823 9.00044 12.534 9.00008 13.4993C8.99833 14.3692 9.24627 15.3638 9.58072 16.3243C9.91951 17.2972 10.3677 18.2923 10.8096 19.1797C11.2524 20.0691 11.6946 20.8618 12.0257 21.4317C12.1915 21.7171 12.3299 21.9474 12.4273 22.1071C12.476 22.1869 12.5145 22.2492 12.5411 22.2919L12.5718 22.341L12.58 22.3541L12.5832 22.3591C12.5832 22.3591 12.5833 22.3593 13.2168 21.9578L12.5832 22.3591C12.8049 22.7089 13.2684 22.813 13.6183 22.5913C13.9681 22.3696 14.072 21.9063 13.8504 21.5564L13.8486 21.5536L13.8419 21.543L13.8145 21.4992C13.7902 21.4601 13.7541 21.4017 13.7079 21.3259C13.6153 21.1743 13.4825 20.9532 13.3227 20.6782C13.0028 20.1276 12.5771 19.3641 12.1524 18.5112C11.7268 17.6564 11.3079 16.7231 10.9973 15.831C10.6825 14.9269 10.4987 14.1203 10.5001 13.5018L10.5001 13.5002C10.5001 12.9656 10.735 12.3694 11.4272 12.0771" fill="#0F0F0F"/>
</g>
</g>
</svg>

<svg xmlns="http://www.w3.org/2000/svg" width="24" height="24" viewBox="0 0 24 24">
  <g class="ic-fingerprint">
    <g class="Icon">
      <path fill-rule="evenodd" d="M12.306 3.015A9.494 9.494 0 0 0 2.28 13.263a.75.75 0 1 1-1.496.116 10.994 10.994 0 0 1 11.633-11.86l.025.002.483.06c5.426.336 9.803 4.676 10.255 10.107v.013l.06.9v.003c.152 2.078-1.537 3.779-3.547 3.701h-.013a3.46 3.46 0 0 1-3.08-2.385l-.004-.014-.602-1.932v-.004a4.326 4.326 0 0 0-4.673-3.039c-2.064.26-3.698 1.97-3.8 4.004v.01c-.11 1.76.322 4.21 2.124 7.24a.75.75 0 0 1-1.29.767c-1.93-3.249-2.462-5.992-2.332-8.096.142-2.794 2.361-5.068 5.113-5.413h.002a5.826 5.826 0 0 1 6.289 4.086v.001l.6 1.923a1.959 1.959 0 0 0 1.73 1.353 1.943 1.943 0 0 0 1.987-2.094v-.006l-.06-.9c-.394-4.704-4.194-8.45-8.873-8.729l-.025-.001-.48-.06ZM11.108 4.42c4.032-.33 7.793 2.253 8.914 6.221a.75.75 0 0 1-1.444.408c-.926-3.279-4.031-5.406-7.348-5.133h-.002c-3.423.272-6.152 3-6.48 6.45l-.002.022-.003.021v.003l-.003.018a6.973 6.973 0 0 0-.04.443c-.018.316-.027.776.012 1.34a12.01 12.01 0 0 0 1.112 4.285.75.75 0 0 1-1.356.64 13.51 13.51 0 0 1-1.253-4.82 12.195 12.195 0 0 1-.012-1.531 8.486 8.486 0 0 1 .05-.556l.003-.025C3.66 8.054 6.95 4.75 11.108 4.419Z"/>
      <path fill-rule="evenodd" d="M11.427 12.077c.704-.297 1.57.102 1.817.902Zm1.817.902.056.217c.394 1.543 1.309 5.122 4.23 8.47a.75.75 0 1 0 1.13-.986c-2.682-3.075-3.523-6.357-3.91-7.87l-.058-.224-.003-.013-.004-.013c-.482-1.608-2.26-2.532-3.841-1.865C9.454 11.282 9 12.534 9 13.5c-.002.87.246 1.865.58 2.825.34.973.788 1.968 1.23 2.856a40.41 40.41 0 0 0 1.731 3.112l.03.049.009.013.003.005.634-.401-.634.401a.75.75 0 0 0 1.267-.803l-.001-.002-.007-.011-.027-.044a34.896 34.896 0 0 1-.492-.821c-.32-.55-.746-1.314-1.17-2.167a23.61 23.61 0 0 1-1.156-2.68c-.315-.904-.498-1.71-.497-2.33 0-.535.235-1.132.927-1.424"/>
    </g>
  </g>
</svg>
